assets/icons/custom/custom105.svg

<svg width="100px" height="100px" viewBox="0 0 100 100" xmlns="http://www.w3.org/2000/svg">
    <g stroke="none" stroke-width="1" fill="none" fill-rule="evenodd">
        <path d="M76.0526316,26.315789 L23.9473684,26.315789 C21.9684052,26.3417863 20.3815455,27.9603832 20.3947368,29.9394732 L20.3947368,32.4973679 C20.3858197,32.7700368 20.5021575,33.031797 20.7105263,33.2078943 L46.9842105,54.7368416 L46.9842105,54.7368416 C48.6369974,56.3360855 51.260371,56.3360855 52.9131579,54.7368416 L52.9131579,54.7368416 L79.1868421,33.18421 C79.3952109,33.0081128 79.5115488,32.7463526 79.5026316,32.4736837 L79.5026316,29.9710522 C79.5470557,28.013677 78.009307,26.3844374 76.0526316,26.315789 L76.0526316,26.315789 Z M20.4184211,37.9289469 C20.4167466,37.5915076 20.6106972,37.2836494 20.9157895,37.1394732 C21.2294289,36.9638399 21.6221173,37.0222563 21.8710526,37.2815785 L34.6210526,48.5789469 C34.8102463,48.7361823 34.9153315,48.9726242 34.9052632,49.2184206 C34.9152168,49.4656027 34.8272744,49.7067353 34.6605263,49.8894732 L21.9105263,61.9289469 C21.6798764,62.2126223 21.2846279,62.3008182 20.9552632,62.1421048 C20.6143509,62.0007284 20.4015497,61.6577056 20.4263158,61.2894732 L20.4263158,37.9289469 L20.4184211,37.9289469 Z M20.4184211,67.1394732 C20.4224468,66.8873743 20.5243689,66.646725 20.7026316,66.4684206 L36.7526316,51.4921048 C37.0776436,51.1752065 37.5960406,51.1752065 37.9210526,51.4921048 L44.7026316,57.5315785 C47.6660044,60.3188212 52.2866271,60.3188212 55.25,57.5315785 L62.0315789,51.4921048 C62.3628273,51.1909254 62.8687517,51.1909254 63.2,51.4921048 L79.2578947,66.4368416 C79.4421883,66.6110198 79.5452394,66.854335 79.5421053,67.1078943 L79.5421053,70.0210522 C79.5568747,70.977958 79.1908518,71.9015272 78.5245802,72.5885273 C77.8583086,73.2755273 76.946383,73.6696651 75.9894737,73.6842101 L23.9473684,73.6842101 C21.9578097,73.6539064 20.3683819,72.0185618 20.3947368,70.0289469 L20.3947368,67.115789 L20.4184211,67.1394732 Z M79.5736842,61.2815785 C79.5847003,61.646252 79.376353,61.9820954 79.0447368,62.1342101 C78.7127864,62.2664507 78.3337179,62.1818652 78.0894737,61.9210522 L65.3394737,49.8578943 C65.1727256,49.6751563 65.0847832,49.4340237 65.0947368,49.1868416 C65.0922334,48.9355747 65.2094934,48.6981231 65.4105263,48.5473679 L78.1605263,37.2184206 C78.4135347,36.987409 78.7866632,36.9459503 79.0842105,37.115789 C79.396411,37.2568287 79.6014666,37.5628818 79.6131579,37.9052627 L79.6131579,61.2578943 L79.5736842,61.2815785 Z" fill="#FFFFFF"></path>
    </g>
</svg>

<?xml version="1.0"?><svg width="100" height="100" viewBox="0 0 100 100" xmlns="http://www.w3.org/2000/svg"><path d="m76.1 26.3h-52.2c-1.9 0-3.5 1.7-3.5 3.6v2.6c0 0.3 0.1 0.5 0.3 0.7l26.3 21.5c1.6 1.6 4.3 1.6 5.9 0l26.3-21.5c0.2-0.2 0.3-0.5 0.3-0.7v-2.5c0-2-1.5-3.6-3.4-3.7z m-55.7 11.6c0-0.3 0.2-0.6 0.5-0.8 0.3-0.1 0.7-0.1 1 0.2l12.7 11.3c0.2 0.1 0.3 0.4 0.3 0.6 0 0.3-0.1 0.5-0.2 0.7l-12.8 12c-0.2 0.3-0.6 0.4-0.9 0.2-0.4-0.1-0.6-0.4-0.6-0.8v-23.4h0z m0 29.2c0-0.2 0.1-0.5 0.3-0.6l16.1-15c0.3-0.3 0.8-0.3 1.1 0l6.8 6c3 2.8 7.6 2.8 10.6 0l6.7-6c0.4-0.3 0.9-0.3 1.2 0l16.1 14.9c0.1 0.2 0.2 0.5 0.2 0.7v2.9c0.1 1-0.3 1.9-1 2.6-0.6 0.7-1.6 1.1-2.5 1.1h-52.1c-1.9 0-3.5-1.7-3.5-3.7v-2.9l0 0z m59.2-5.8c0 0.3-0.2 0.7-0.6 0.8-0.3 0.2-0.7 0.1-0.9-0.2l-12.8-12c-0.1-0.2-0.2-0.5-0.2-0.7 0-0.3 0.1-0.5 0.3-0.7l12.8-11.3c0.2-0.2 0.6-0.3 0.9-0.1 0.3 0.2 0.5 0.5 0.5 0.8v23.4l0 0z" fill="#fff"></path></svg>
